svgs/sharp-regular/bracket-square-right.svg

<svg xmlns="http://www.w3.org/2000/svg" viewBox="0 0 192 512"><!--! Font Awesome Pro 6.6.0 by @fontawesome - https://fontawesome.com License - https://fontawesome.com/license (Commercial License) Copyright 2024 Fonticons, Inc. --><path d="M192 32l-24 0L72 32 48 32l0 48 24 0 72 0 0 352-72 0-24 0 0 48 24 0 96 0 24 0 0-24 0-400 0-24z"/></svg>

<svg xmlns="http://www.w3.org/2000/svg" viewBox="0 0 192 512"><!--! Font Awesome Pro 6.4.0 by @fontawesome - https://fontawesome.com License - https://fontawesome.com/license (Commercial License) Copyright 2023 Fonticons, Inc. --><path d="M192 32H168 72 48V80H72h72V432H72 48v48H72h96 24V456 56 32z"/></svg>
